X: 7608
T: Cogwheel Rant
R: reel
M: 4/4
K: Amajor
f S|:ecAc efec|dfec B2 df|ecAc efec|1 dfec A3 f:|2 dfec A2fg||
agfe acec|acec Befg|agfe acec|dfec A2 fg|
agfe acec|dfec B2 df|ecAc efec|dfec A3 fS||

